X: 305666
M: 2/4
L: 1/16
K: D
d2dc d2f2 | a4 g2e2 | d2dc d2f2 | edcB A2A2 |\
d2dc d2f2 | a4 g2e2 | gfed cdec | d2A2D2 H|]
efe^d e2A2 | fgfe f2a2 | g2ge f2fd | edcB A2A2 |\
efe^d e2A2 | fgfe f2a2 | g2ge f2fd | edcB ABc"^D.C."A |]


